public/icons/binanceSC.svg

<svg width="129" height="53" viewBox="0 0 129 53" fill="none" xmlns="http://www.w3.org/2000/svg">
<path d="M41.1807 15.6128H46.0411C47.2761 15.6128 48.1792 15.9448 48.7635 16.5158C49.3345 17.0072 49.5868 17.6712 49.5868 18.3219C49.5868 18.5742 49.5868 18.8929 49.5071 19.1452C49.3478 19.5569 49.0955 19.9686 48.7635 20.3006C48.6041 20.4599 48.4315 20.5529 48.2721 20.6326C48.8431 20.7919 49.3478 21.1239 49.7595 21.5356C50.0915 21.9473 50.2508 22.4386 50.2508 23.1823C50.2508 23.594 50.1711 24.0853 49.9985 24.4173C49.8391 24.7493 49.5071 25.0813 49.1751 25.3204C48.7635 25.5727 48.3518 25.732 47.9401 25.8914C47.4488 26.0507 46.8644 26.0507 46.2934 26.0507H41.2603V15.5862H41.1807V15.6128ZM45.6294 19.8889C46.0411 19.8889 46.4528 19.8092 46.8644 19.6366C47.1964 19.4772 47.3558 19.1452 47.3558 18.8132C47.3558 18.4812 47.1964 18.1492 46.9441 17.9899C46.6121 17.7376 46.2005 17.6579 45.7888 17.7376H43.4781V19.9553H45.6161V19.8889H45.6294ZM46.2005 24.0986C46.6121 24.0986 47.0238 24.0189 47.4355 23.8463C47.7675 23.6869 47.9268 23.3549 47.8472 22.9433C47.8472 22.6113 47.6878 22.2793 47.4355 22.1199C47.1832 21.9605 46.6918 21.7879 46.1208 21.7879H43.3984V24.0986H46.2005Z" fill="#F3BA2F"/>
<path d="M53.1191 15.6128H55.4298V26.157H53.1191V15.6128Z" fill="#F3BA2F"/>
<path d="M58.9756 15.6128H61.1136L66.0537 22.1199V15.6128H68.3512V26.157H66.3857L61.1933 19.4772V26.157H58.9756V15.6128Z" fill="#F3BA2F"/>
<path d="M75.3624 15.5331H77.5005L82.0289 26.157H79.6385L78.6558 23.7666H74.2071L73.2244 26.157H70.834L75.3624 15.5331ZM77.8325 21.7879L76.4381 18.3351L75.0437 21.7879H77.8325Z" fill="#F3BA2F"/>
<path d="M84.499 15.6128H86.6371L91.5772 22.1199V15.6128H93.8879V26.157H91.9092L86.7964 19.4772V26.157H84.499V15.6128Z" fill="#F3BA2F"/>
<path d="M102.281 26.3163C101.537 26.3163 100.794 26.157 100.143 25.9047C98.8283 25.3336 97.8323 24.3376 97.2613 23.0229C97.009 22.3589 96.8496 21.6285 96.8496 20.8849C96.8496 19.4905 97.4207 18.0828 98.4166 17.0204C98.908 16.5291 99.4923 16.1174 100.143 15.8651C100.887 15.5331 101.63 15.4534 102.361 15.4534C102.772 15.4534 103.264 15.4534 103.675 15.5331C104.087 15.6128 104.419 15.6925 104.751 15.8651C105.083 16.0244 105.415 16.1971 105.654 16.3564C105.906 16.5158 106.225 16.7681 106.478 17.0204L105.083 18.7468C104.671 18.4148 104.26 18.0828 103.848 17.8438C103.436 17.6048 102.945 17.5118 102.454 17.5118C102.042 17.5118 101.63 17.5915 101.219 17.7641C100.807 17.9235 100.475 18.1758 100.236 18.5078C99.9969 18.8398 99.7446 19.1718 99.572 19.5835C99.4126 19.9951 99.3197 20.4068 99.3197 20.8185C99.3197 21.2302 99.3993 21.7215 99.572 22.1332C99.7446 22.5449 99.904 22.8769 100.236 23.2088C100.807 23.8728 101.63 24.1916 102.454 24.1916C102.945 24.1916 103.529 24.1119 104.021 23.8596C104.432 23.6072 104.924 23.2885 105.256 22.9565L106.73 24.4306C106.478 24.6829 106.159 25.0016 105.906 25.254C105.574 25.5063 105.242 25.6656 104.924 25.825C104.592 25.9843 104.18 26.157 103.768 26.2367C103.184 26.3163 102.693 26.3163 102.281 26.3163Z" fill="#F3BA2F"/>
<path d="M109.373 15.6128H117.275V17.6712H111.591V19.8092H116.611V21.8676H111.591V24.0986H117.354V26.157H109.373V15.6128Z" fill="#F3BA2F"/>
<path d="M44.1419 36.5285C43.5708 36.5285 42.9865 36.4489 42.4952 36.1965C42.0038 36.0372 41.5124 35.7052 41.0078 35.2935L41.8312 34.3905C42.1632 34.7225 42.4952 34.8818 42.9068 35.1342C43.3185 35.2935 43.7302 35.3865 44.1419 35.3865C44.4739 35.3865 44.8059 35.3068 45.1246 35.1342C45.3769 34.9748 45.4566 34.7225 45.4566 34.4702C45.4566 34.3905 45.4566 34.2178 45.3769 34.1382C45.2972 34.0585 45.2175 33.8858 45.1246 33.8062C44.9652 33.7265 44.7926 33.6468 44.6332 33.5539C44.3809 33.4742 44.0622 33.3945 43.8099 33.3015C43.4779 33.2219 43.0662 33.1422 42.7342 32.9695C42.4819 32.8899 42.1632 32.7172 41.9905 32.5579C41.8312 32.3985 41.6585 32.2259 41.4992 31.9868C41.3398 31.6548 41.3398 31.3228 41.3398 31.0838C41.3398 30.7518 41.4195 30.5128 41.4992 30.1808C41.5788 29.9284 41.8312 29.6894 41.9905 29.5168C42.2428 29.3574 42.4819 29.1848 42.8139 29.1051C43.1459 29.0254 43.4779 28.9457 43.7966 28.9457C44.2879 28.9457 44.7793 29.0254 45.2839 29.1981C45.6956 29.3574 46.1073 29.6097 46.519 29.862L45.855 30.8448C45.523 30.5924 45.191 30.4331 44.8723 30.2737C44.5403 30.1144 44.2083 30.1144 43.8895 30.1144C43.5575 30.1144 43.2255 30.194 42.9865 30.3667C42.8272 30.526 42.6545 30.7784 42.6545 31.0307C42.6545 31.19 42.6545 31.283 42.7342 31.4424C42.8139 31.522 42.8936 31.6947 42.9865 31.7743C43.1459 31.854 43.3185 31.9337 43.5575 32.0267C43.8099 32.1063 44.0489 32.186 44.4606 32.279C44.7926 32.3587 45.1246 32.4383 45.5362 32.611C45.7886 32.6907 46.0276 32.8633 46.2799 33.0227C46.4393 33.182 46.6119 33.4343 46.6916 33.5937C46.7713 33.846 46.8509 34.085 46.8509 34.417C46.8509 34.749 46.7713 35.081 46.6916 35.3201C46.5322 35.5724 46.3596 35.8114 46.1206 36.0637C45.8682 36.2231 45.6292 36.3957 45.2972 36.4754C44.8855 36.4489 44.4739 36.5285 44.1419 36.5285Z" fill="#F3BA2F"/>
<path d="M48.2588 29.0387H49.6665L51.8842 32.4915L54.1949 29.0387H55.5893V36.4489H54.2746V31.0971L51.9639 34.5499H51.8842L49.5868 31.0971V36.4489H48.2588V29.0387Z" fill="#F3BA2F"/>
<path d="M60.0383 28.959H61.2734L64.4871 36.3692H63.0927L62.349 34.5631H58.8963L58.1526 36.3692H56.8379L60.0383 28.959ZM61.9374 33.4875L60.6227 30.5261L59.3876 33.4875H61.9374Z" fill="#F3BA2F"/>
<path d="M65.8014 29.0387H69.0948C69.5064 29.0387 69.9181 29.1184 70.3298 29.1981C70.6618 29.2777 70.9938 29.5301 71.2328 29.7691C71.3922 29.9285 71.5648 30.1808 71.7242 30.5128C71.8039 30.7651 71.8835 31.0838 71.8835 31.4158C71.8835 31.6681 71.8039 31.9868 71.7242 32.2392C71.6445 32.4915 71.4719 32.6508 71.3922 32.9031C71.2328 33.0625 71.0602 33.2351 70.8211 33.3945C70.5688 33.5539 70.3298 33.6468 70.0775 33.7265L72.0562 36.5285H70.4891L68.6831 33.9788H67.0364V36.5285H65.7217L65.8014 29.0387ZM69.0151 32.6641C69.4268 32.6641 69.8384 32.5844 70.0907 32.3321C70.3431 32.0798 70.5024 31.7611 70.5024 31.4291C70.5024 31.0971 70.3431 30.7651 70.0907 30.5261C69.7588 30.2737 69.3471 30.1941 68.9354 30.1941H67.0364V32.6641H69.0151Z" fill="#F3BA2F"/>
<path d="M75.2703 30.1941H72.8799V29.0387H78.8957V30.1941H76.5053V36.4489H75.1906L75.2703 30.1941Z" fill="#F3BA2F"/>
<path d="M86.8898 36.5286C86.3984 36.5286 85.9071 36.4489 85.4025 36.1966C84.4994 35.7849 83.7558 35.1209 83.4238 34.2179C83.2644 33.7265 83.0918 33.2351 83.1714 32.7305C83.1714 32.2392 83.2511 31.7478 83.4238 31.2432C83.7558 30.3401 84.4994 29.5965 85.4025 29.1848C85.8938 29.0254 86.3852 28.8528 86.9695 28.8528C87.3015 28.8528 87.6335 28.8528 87.8725 28.9325C88.1248 29.0122 88.3639 29.0918 88.6162 29.1848C88.8685 29.2645 89.0279 29.4371 89.2802 29.5168C89.4395 29.6761 89.6919 29.8488 89.8512 30.0081L89.0279 30.9909C88.7755 30.7385 88.4568 30.4995 88.1248 30.3269C87.7928 30.1675 87.3812 30.0745 86.9695 30.0745C86.6375 30.0745 86.3055 30.1542 85.9868 30.2339C85.6548 30.3933 85.4157 30.5659 85.1634 30.8049C84.9111 31.0573 84.7518 31.2963 84.6721 31.6283C84.5924 31.9603 84.5127 32.2923 84.5127 32.611C84.5127 32.943 84.5924 33.275 84.6721 33.5937C84.7518 33.9124 84.9244 34.1647 85.1634 34.4171C85.4157 34.6694 85.6548 34.8287 85.9868 34.9881C86.3188 35.1474 86.6508 35.2404 86.9695 35.1474C87.3812 35.1474 87.7928 35.0678 88.1248 34.8951C88.4568 34.7358 88.7888 34.4835 89.1075 34.1515L89.9309 34.9748C89.7715 35.1342 89.5192 35.3865 89.3599 35.5458C89.1075 35.7052 88.9482 35.8778 88.6959 35.9575C88.4435 36.0372 88.2045 36.2098 87.8725 36.2098C87.5405 36.5286 87.2085 36.5286 86.8898 36.5286Z" fill="#F3BA2F"/>
<path d="M91.2451 29.0387H92.4801V32.0798H96.0259V29.0387H97.3406V36.4489H96.0259V33.3148H92.4801V36.4489H91.2451V29.0387Z" fill="#F3BA2F"/>
<path d="M101.869 28.959H103.104L106.318 36.3692H104.924L104.18 34.5631H100.727L99.9837 36.3692H98.6689L101.869 28.959ZM103.689 33.4875L102.454 30.5261L101.219 33.4875H103.689Z" fill="#F3BA2F"/>
<path d="M107.633 29.0387H108.961V36.4489H107.633V29.0387Z" fill="#F3BA2F"/>
<path d="M110.927 29.0387H112.082L116.04 34.1382V29.0387H117.354V36.4489H116.279L112.255 31.1768V36.4489H110.927V29.0387Z" fill="#F3BA2F"/>
<path d="M26.6922 35.9575V39.1712L23.8901 40.8179L21.1678 39.1712V35.9575L23.8901 37.6042L26.6922 35.9575ZM11.6992 24.8423L14.4216 26.489V32.0001L19.1094 34.8022V38.0159L11.6992 33.6468V24.8423ZM36.081 24.8423V33.6601L28.5912 38.0292V34.8155L33.279 32.0134V26.5023L36.081 24.8423ZM28.5779 20.4732L31.38 22.1199V25.3336L26.6922 28.1357V33.7265L23.9698 35.3732L21.2607 33.7265V28.1224L16.4003 25.3204V22.1066L19.2023 20.4599L23.8901 23.262L28.5779 20.4732ZM16.4003 27.631L19.1227 29.2778V32.4915L16.4003 30.8448V27.631ZM31.38 27.631V30.8448L28.6576 32.4915V29.2778L31.38 27.631ZM14.4216 17.6712L17.2236 19.3179L14.4216 20.9646V24.1783L11.6992 22.5316V19.3179L14.4216 17.6712ZM33.3587 17.6712L36.1607 19.3179V22.5316L33.3587 24.1783V20.9646L30.6363 19.3179L33.3587 17.6712ZM23.8901 17.6712L26.6922 19.3179L23.8901 20.9646L21.1678 19.3179L23.8901 17.6712ZM23.8901 12.16L31.38 16.5291L28.6576 18.1758L23.9698 15.3737L19.1891 18.1758L16.4667 16.5291L23.8901 12.16Z" fill="#F3BA2F"/>
</svg>

<svg width="129" height="53" fill="none" xmlns="http://www.w3.org/2000/svg"><path d="M41.18 15.613h4.861c1.235 0 2.138.332 2.723.903a2.35 2.35 0 0 1 .823 1.806c0 .252 0 .57-.08.823-.16.412-.411.824-.743 1.156-.16.159-.333.252-.492.332.571.159 1.076.49 1.488.903.332.411.49.903.49 1.646 0 .412-.079.903-.252 1.235-.159.332-.49.664-.823.903-.411.253-.823.412-1.235.571-.491.16-1.076.16-1.647.16H41.26V15.586h-.08v.027Zm4.45 4.276c.411 0 .823-.08 1.234-.252.332-.16.492-.492.492-.824 0-.332-.16-.664-.412-.823a1.43 1.43 0 0 0-1.155-.252h-2.31v2.217h2.137v-.066h.013Zm.57 4.21c.412 0 .824-.08 1.235-.253.332-.16.492-.491.412-.903 0-.332-.16-.664-.412-.823-.252-.16-.743-.332-1.314-.332h-2.723v2.31H46.2ZM53.12 15.613h2.31v10.544h-2.31V15.613ZM58.976 15.613h2.138l4.94 6.507v-6.507h2.297v10.544h-1.965l-5.193-6.68v6.68h-2.217V15.613ZM75.362 15.533h2.139l4.528 10.624h-2.39l-.983-2.39h-4.449l-.983 2.39h-2.39l4.528-10.624Zm2.47 6.255-1.394-3.453-1.394 3.453h2.788ZM84.499 15.613h2.138l4.94 6.507v-6.507h2.31v10.544H91.91l-5.113-6.68v6.68H84.5V15.613ZM102.281 26.316c-.744 0-1.487-.159-2.138-.411a5.461 5.461 0 0 1-2.882-2.882 6.061 6.061 0 0 1-.411-2.138c0-1.395.57-2.802 1.567-3.865.491-.49 1.075-.903 1.726-1.155.744-.332 1.487-.412 2.218-.412.411 0 .903 0 1.314.08.412.08.744.16 1.076.332.332.16.664.332.903.491.252.16.571.412.824.664l-1.395 1.727c-.412-.332-.823-.664-1.235-.903-.412-.24-.903-.332-1.394-.332-.412 0-.824.08-1.235.252-.412.16-.744.412-.983.744-.24.332-.491.664-.664 1.076-.16.411-.252.823-.252 1.235 0 .411.08.902.252 1.314.173.412.332.744.664 1.076.571.664 1.394.983 2.218.983.491 0 1.075-.08 1.567-.332.411-.253.903-.572 1.235-.904l1.474 1.475-.824.823c-.332.252-.664.412-.982.571-.332.16-.744.332-1.156.412-.584.08-1.075.08-1.487.08ZM109.373 15.613h7.902v2.058h-5.684v2.138h5.02v2.059h-5.02v2.23h5.763v2.059h-7.981V15.613ZM44.142 36.529c-.571 0-1.156-.08-1.647-.333-.491-.159-.983-.49-1.487-.902l.823-.903c.332.331.664.49 1.076.743.412.16.823.252 1.235.252.332 0 .664-.08.983-.252.252-.16.332-.412.332-.664 0-.08 0-.252-.08-.332-.08-.08-.16-.252-.252-.332-.16-.08-.332-.16-.492-.252-.252-.08-.57-.16-.823-.253-.332-.08-.744-.159-1.076-.332a2.243 2.243 0 0 1-.744-.411c-.159-.16-.332-.332-.49-.571-.16-.332-.16-.664-.16-.903 0-.332.08-.571.16-.903.079-.253.331-.492.49-.664.253-.16.492-.332.824-.412.332-.08.664-.16.983-.16.49 0 .982.08 1.487.253.412.16.823.412 1.235.664l-.664.983c-.332-.253-.664-.412-.983-.571-.332-.16-.664-.16-.983-.16-.332 0-.664.08-.903.253-.159.159-.331.411-.331.664 0 .159 0 .252.08.411.079.08.159.253.252.332.159.08.331.16.57.253.253.08.492.159.904.252.332.08.664.16 1.075.332.253.08.492.252.744.412.16.159.332.411.412.57.08.253.159.492.159.824 0 .332-.08.664-.16.903-.159.252-.331.491-.57.744-.253.16-.492.332-.824.411-.411-.026-.823.053-1.155.053ZM48.259 29.039h1.407l2.218 3.453 2.31-3.453h1.395v7.41h-1.314v-5.352l-2.311 3.453h-.08l-2.297-3.453v5.352h-1.328v-7.41ZM60.038 28.959h1.235l3.214 7.41h-1.394l-.744-1.806h-3.453l-.743 1.806h-1.315l3.2-7.41Zm1.9 4.528-1.315-2.96-1.235 2.96h2.55ZM65.801 29.039h3.294c.411 0 .823.08 1.235.16.332.079.664.331.903.57.16.16.332.412.491.744.08.252.16.57.16.903 0 .252-.08.57-.16.823s-.252.412-.332.664c-.16.16-.332.332-.57.492-.253.159-.492.252-.745.331l1.98 2.803h-1.568l-1.806-2.55h-1.647v2.55h-1.314l.08-7.49Zm3.214 3.625c.412 0 .823-.08 1.076-.332.252-.252.411-.57.411-.903 0-.332-.159-.664-.411-.903-.332-.252-.744-.332-1.156-.332h-1.899v2.47h1.98ZM75.27 30.194h-2.39V29.04h6.016v1.155h-2.39v6.255H75.19l.08-6.255ZM86.89 36.529c-.492 0-.983-.08-1.487-.332-.904-.412-1.647-1.076-1.98-1.98-.159-.49-.331-.982-.252-1.486 0-.492.08-.983.253-1.488.332-.903 1.075-1.646 1.978-2.058.492-.16.983-.332 1.567-.332.333 0 .665 0 .904.08.252.08.49.159.743.252.252.08.412.252.664.332.16.16.412.332.571.491l-.823.983a3.779 3.779 0 0 0-.903-.664 2.729 2.729 0 0 0-1.156-.253c-.331 0-.663.08-.982.16a3.04 3.04 0 0 0-.824.57c-.252.253-.411.492-.49.824-.08.332-.16.664-.16.983 0 .332.08.664.16.983.079.318.251.57.49.823.253.252.492.412.824.571.332.16.664.252.983.16.411 0 .823-.08 1.155-.253a3.49 3.49 0 0 0 .983-.744l.823.824-.571.57c-.252.16-.412.333-.664.413-.252.08-.492.252-.823.252-.333.319-.665.319-.983.319ZM91.245 29.039h1.235v3.04h3.546v-3.04h1.315v7.41h-1.315v-3.134H92.48v3.134h-1.235v-7.41ZM101.869 28.959h1.235l3.214 7.41h-1.394l-.744-1.806h-3.453l-.743 1.806h-1.315l3.2-7.41Zm1.82 4.528-1.235-2.96-1.235 2.96h2.47ZM107.633 29.039h1.328v7.41h-1.328v-7.41ZM110.927 29.039h1.155l3.958 5.1v-5.1h1.314v7.41h-1.075l-4.024-5.272v5.272h-1.328v-7.41ZM26.692 35.958v3.213l-2.802 1.647-2.722-1.647v-3.213l2.722 1.646 2.802-1.646ZM11.7 24.842l2.723 1.647V32l4.687 2.802v3.214l-7.41-4.37v-8.804Zm24.382 0v8.818l-7.49 4.37v-3.215l4.688-2.802v-5.51l2.802-1.66Zm-7.503-4.369 2.802 1.647v3.214l-4.688 2.802v5.59l-2.722 1.647-2.71-1.646v-5.605L16.4 25.32v-3.213l2.802-1.647 4.688 2.802 4.688-2.789ZM16.4 27.631l2.723 1.647v3.214L16.4 30.845V27.63Zm14.98 0v3.214l-2.722 1.647v-3.214l2.722-1.647Zm-16.958-9.96 2.802 1.647-2.802 1.647v3.213l-2.723-1.646v-3.214l2.723-1.647Zm18.937 0 2.802 1.647v3.214l-2.802 1.646v-3.213l-2.723-1.647 2.723-1.647Zm-9.469 0 2.802 1.647-2.802 1.647-2.722-1.647 2.722-1.647Zm0-5.511 7.49 4.37-2.722 1.646-4.688-2.802-4.78 2.802-2.723-1.647 7.423-4.369Z" fill="#F3BA2F"/></svg>
